N10 ;Start of Program
N20 ;
N30 ;PART NAME   :Z:\wix\Arcterik\Misc\TetraDecaPost\test_prt.prt
N40 ;DATE TIME   :Tue Apr 03 04:05:39 2018
N50 ;
N60 DEF REAL _camtolerance
N70 DEF REAL _X_HOME, _Y_HOME, _Z_HOME, _C_HOME, _A_HOME
N80 DEF REAL _F_CUTTING, _F_ENGAGE, _F_RETRACT
N90 ;
N100 G40 G17 G700 G94 G90 G60 G601 FNORM
N110 ;Start of Path
N120 ;
N130 ;TECHNOLOGY: MILL_SEMI_FINISH
N140 ;TOOL NAME : CAPS32SR120
N150 ;TOOL TYPE : Milling Tool-5 Parameters
N160 ;TOOL DIAMETER     : 0.500000
N170 ;TOOL LENGTH       : 4.000000
N180 ;TOOL CORNER RADIUS: 0.120000
N190 ;
N200 ;Intol     : 0.001000
N210 ;Outtol    : 0.001000
N220 ;Stock     : 0.010000
N230 _camtolerance=0.002000
N240 _X_HOME=0.0 _Y_HOME=0.0 _Z_HOME=0.0
N250 _C_HOME=0 _A_HOME=0
N260 ;
N270 ;
N280 ;Operation : REST_MILLING
N290 ;
N300 TRAFOOF
N310 SUPA G0 Z=_Z_HOME D0
N320 SUPA G0 X=_X_HOME Y=_Y_HOME C=_C_HOME A=_A_HOME D0
N330 ;First Tool
N340 T="CAPS32SR120"
N350 M6
N360 MSG("MILL_SEMI_FINISH")
N370 TRAFOOF
N380 SUPA G0 Z=_Z_HOME D0
N390 SUPA G0 X=_X_HOME Y=_Y_HOME C=_C_HOME A=_A_HOME D0
N400 cmd_nurbs_init
N410 cmd_nurbs_poly 
N420 ;
N430 ;Initial Move
N440 CYCLE832(_camtolerance,0,1)
N450 TRAORI
N460 G54
N470 ;
N480 ORIWKS
N490 ORIAXES
N500 G0 C0.0 A0.0
N510 G0 X-2.1 Y1.2003965 Z2.1 S0 D0 M3
N520 ;Approach Move
N530 Z1.4538064
N540 ;Engage Move
N550 G1 Z1.3538064 M8 F10.
N560 X-1.85 Y1.5072473
N570 ;Cutting
N580 X-1.7709655 Y1.5993672
N590 BSPLINE SD=3 X-1.6892636 Y1.6898064 PL=0.0
N600 X-1.601724 Y1.7730024 PL=1.
N610 X-1.5072473 Y1.85 PL=0.0
N620 ;Retract Move
N630 G1 X-1.2003965 Y2.1
N640 Z1.4538064
N650 ;Departure Move
N660 G0 Z2.1
N670 X-2.1 Y.9335334
N680 ;Approach Move
N690 Z1.4538064
N700 ;Engage Move
N710 G1 Z1.3538064
N720 X-1.85 Y1.2916128
N730 ;Cutting
N740 X-1.7711318 Y1.397804
N750 BSPLINE SD=3 X-1.6346003 Y1.5708928 PL=0.0
N760 X-1.472405 Y1.7238462 PL=1.
N770 X-1.2916128 Y1.85 PL=0.0
N780 ;Retract Move
N790 G1 X-.9335334 Y2.1
N800 Z1.4538064
N810 ;Departure Move
N820 G0 Z2.1
N830 X-2.1 Y.6068384
N840 ;Approach Move
N850 Z1.4538064
N860 ;Engage Move
N870 G1 Z1.3538064
N880 X-1.85 Y1.0481092
N890 ;Cutting
N900 X-1.7838374 Y1.1571332
N910 BSPLINE SD=3 X-1.7715783 Y1.1745064 PL=0.0
N920 X-1.7126259 Y1.2629285 PL=.0625
N930 X-1.6205476 Y1.3801208 PL=.25
N940 X-1.5039659 Y1.5039613 PL=.125
N950 X-1.3800976 Y1.620521 PL=.125
N960 X-1.2462019 Y1.7258162 PL=.25
N970 X-1.1212275 Y1.8066001 PL=.125
N980 X-1.0662174 Y1.838871 PL=.0625
N990 X-1.0481092 Y1.85 PL=0.0
N1000 ;Retract Move
N1010 G1 X-.6068385 Y2.1
N1020 Z1.4538064
N1030 ;Departure Move
N1040 G0 Z2.1
N1050 X-2.1 Y.1334575
N1060 ;Approach Move
N1070 Z1.4538064
N1080 ;Engage Move
N1090 G1 Z1.3538064
N1100 X-1.85 Y.7500681
N1110 ;Cutting
N1120 X-1.8003415 Y.8624805
N1130 BSPLINE SD=3 X-1.7906448 Y.8804501 PL=0.0
N1140 X-1.5821199 Y1.3034044 PL=.041667
N1150 X-1.2035841 Y1.6593227 PL=.916667
N1160 X-.7686003 Y1.8414274 PL=.041667
N1170 X-.7500682 Y1.85 PL=0.0
N1180 ;Retract Move
N1190 G1 X-.1334575 Y2.1
N1200 Z1.4538064
N1210 ;Departure Move
N1220 G0 Z2.1
N1230 X-2.1 Y-.0019108
N1240 ;Approach Move
N1250 Z1.4538064
N1260 ;Engage Move
N1270 G1 Z1.3538064
N1280 X-1.8829413
N1290 X-1.85 Y.2459095
N1300 ;Cutting
N1310 X-1.8300015 Y.36615
N1320 BSPLINE SD=3 X-1.8249937 Y.3858213 PL=0.0
N1330 X-1.7448088 Y.7636433 PL=.026316
N1340 X-1.3503773 Y1.4416025 PL=.473684
N1350 X-.6481162 Y1.7909367 PL=.473684
N1360 X-.2658658 Y1.846287 PL=.026316
N1370 X-.2459095 Y1.85 PL=0.0
N1380 ;Retract Move
N1390 G1 X.0019107 Y1.8829413
N1400 Y2.1
N1410 Z1.4538064
N1420 ;Departure Move
N1430 G0 Z2.1
N1440 X1.2003965
N1450 ;Approach Move
N1460 Z1.4538064
N1470 ;Engage Move
N1480 G1 Z1.3538064
N1490 X1.5072473 Y1.85
N1500 ;Cutting
N1510 X1.5993672 Y1.7709655
N1520 BSPLINE SD=3 X1.6898064 Y1.6892636 PL=0.0
N1530 X1.7730024 Y1.601724 PL=1.
N1540 X1.85 Y1.5072473 PL=0.0
N1550 ;Retract Move
N1560 G1 X2.1 Y1.2003965
N1570 Z1.4538064
N1580 ;Departure Move
N1590 G0 Z2.1
N1600 X.9335334 Y2.1
N1610 ;Approach Move
N1620 Z1.4538064
N1630 ;Engage Move
N1640 G1 Z1.3538064
N1650 X1.2916128 Y1.85
N1660 ;Cutting
N1670 X1.397804 Y1.7711318
N1680 BSPLINE SD=3 X1.5708928 Y1.6346003 PL=0.0
N1690 X1.7238462 Y1.472405 PL=1.
N1700 X1.85 Y1.2916128 PL=0.0
N1710 ;Retract Move
N1720 G1 X2.1 Y.9335334
N1730 Z1.4538064
N1740 ;Departure Move
N1750 G0 Z2.1
N1760 X.6068384 Y2.1
N1770 ;Approach Move
N1780 Z1.4538064
N1790 ;Engage Move
N1800 G1 Z1.3538064
N1810 X1.0481092 Y1.85
N1820 ;Cutting
N1830 X1.1571332 Y1.7838374
N1840 BSPLINE SD=3 X1.1745064 Y1.7715783 PL=0.0
N1850 X1.2629285 Y1.7126259 PL=.0625
N1860 X1.3801208 Y1.6205476 PL=.25
N1870 X1.5039613 Y1.5039659 PL=.125
N1880 X1.620521 Y1.3800976 PL=.125
N1890 X1.7258162 Y1.2462019 PL=.25
N1900 X1.8066001 Y1.1212275 PL=.125
N1910 X1.838871 Y1.0662174 PL=.0625
N1920 X1.85 Y1.0481092 PL=0.0
N1930 ;Retract Move
N1940 G1 X2.1 Y.6068384
N1950 Z1.4538064
N1960 ;Departure Move
N1970 G0 Z2.1
N1980 X.1334575 Y2.1
N1990 ;Approach Move
N2000 Z1.4538064
N2010 ;Engage Move
N2020 G1 Z1.3538064
N2030 X.7500681 Y1.85
N2040 ;Cutting
N2050 X.8624805 Y1.8003415
N2060 BSPLINE SD=3 X.8804501 Y1.7906448 PL=0.0
N2070 X1.3034044 Y1.5821199 PL=.041667
N2080 X1.6593227 Y1.2035841 PL=.916667
N2090 X1.8414274 Y.7686003 PL=.041667
N2100 X1.85 Y.7500681 PL=0.0
N2110 ;Retract Move
N2120 G1 X2.1 Y.1334575
N2130 Z1.4538064
N2140 ;Departure Move
N2150 G0 Z2.1
N2160 X-.0019107 Y2.1
N2170 ;Approach Move
N2180 Z1.4538064
N2190 ;Engage Move
N2200 G1 Z1.3538064
N2210 Y1.8829413
N2220 X.2459095 Y1.85
N2230 ;Cutting
N2240 X.2600055 Y1.8480716
N2250 BSPLINE SD=3 X.2624029 Y1.8480319 PL=0.0
N2260 X.28686 Y1.8434943 PL=.002935
N2270 X.5490237 Y1.8009751 PL=.027788
N2280 X1.0658667 Y1.5987228 PL=.298239
N2290 X1.614783 Y1.0413669 PL=.347945
N2300 X1.8082975 Y.5237644 PL=.298239
N2310 X1.8466052 Y.265758 PL=.024853
N2320 X1.85 Y.2459095 PL=0.0
N2330 ;Retract Move
N2340 G1 X1.8829413 Y-.0019107
N2350 X2.1
N2360 Z1.4538064
N2370 ;Departure Move
N2380 G0 Z2.1
N2390 Y-1.2003965
N2400 ;Approach Move
N2410 Z1.4538064
N2420 ;Engage Move
N2430 G1 Z1.3538064
N2440 X1.85 Y-1.5072473
N2450 ;Cutting
N2460 X1.7709655 Y-1.5993672
N2470 BSPLINE SD=3 X1.6892636 Y-1.6898064 PL=0.0
N2480 X1.601724 Y-1.7730024 PL=1.
N2490 X1.5072473 Y-1.85 PL=0.0
N2500 ;Retract Move
N2510 G1 X1.2003965 Y-2.1
N2520 Z1.4538064
N2530 ;Departure Move
N2540 G0 Z2.1
N2550 X2.1 Y-.9335334
N2560 ;Approach Move
N2570 Z1.4538064
N2580 ;Engage Move
N2590 G1 Z1.3538064
N2600 X1.85 Y-1.2916128
N2610 ;Cutting
N2620 X1.7711317 Y-1.397804
N2630 BSPLINE SD=3 X1.6346003 Y-1.5708928 PL=0.0
N2640 X1.4724049 Y-1.7238462 PL=1.
N2650 X1.2916128 Y-1.85 PL=0.0
N2660 ;Retract Move
N2670 G1 X.9335334 Y-2.1
N2680 Z1.4538064
N2690 ;Departure Move
N2700 G0 Z2.1
N2710 X2.1 Y-.6068384
N2720 ;Approach Move
N2730 Z1.4538064
N2740 ;Engage Move
N2750 G1 Z1.3538064
N2760 X1.85 Y-1.0481092
N2770 ;Cutting
N2780 X1.8252758 Y-1.0905967
N2790 BSPLINE SD=3 X1.6378424 Y-1.4051906 PL=0.0
N2800 X1.367 Y-1.6698982 PL=1.
N2810 X1.0481092 Y-1.85 PL=0.0
N2820 ;Retract Move
N2830 G1 X.6068384 Y-2.1
N2840 Z1.4538064
N2850 ;Departure Move
N2860 G0 Z2.1
N2870 X2.1 Y-.1334575
N2880 ;Approach Move
N2890 Z1.4538064
N2900 ;Engage Move
N2910 G1 Z1.3538064
N2920 X1.85 Y-.7500681
N2930 ;Cutting
N2940 X1.8026935 Y-.8575538
N2950 BSPLINE SD=3 X1.7767287 Y-.9102194 PL=0.0
N2960 X1.7111008 Y-1.034619 PL=.119009
N2970 X1.5855263 Y-1.2201046 PL=.165868
N2980 X1.3676972 Y-1.4699387 PL=.168264
N2990 X1.1044998 Y-1.6766015 PL=.336528
N3000 X.864622 Y-1.801153 PL=.168264
N3010 X.768979 Y-1.8414275 PL=.042066
N3020 X.7500681 Y-1.85 PL=0.0
N3030 ;Retract Move
N3040 G1 X.1334575 Y-2.1
N3050 Z1.4538064
N3060 ;Departure Move
N3070 G0 Z2.1
N3080 X2.1 Y.0019107
N3090 ;Approach Move
N3100 Z1.4538064
N3110 ;Engage Move
N3120 G1 Z1.3538064
N3130 X1.8829413
N3140 X1.85 Y-.2459095
N3150 ;Cutting
N3160 X1.8314375 Y-.3588986
N3170 BSPLINE SD=3 X1.8195924 Y-.4149322 PL=0.0
N3180 X1.7338217 Y-.7703617 PL=.073925
N3190 X1.337539 Y-1.4406088 PL=.39785
N3200 X.67051 Y-1.788361 PL=.503072
N3210 X.2649518 Y-1.8463588 PL=.025154
N3220 X.2459095 Y-1.85 PL=0.0
N3230 ;Retract Move
N3240 G1 X-.0019108 Y-1.8829413
N3250 Y-2.1
N3260 Z1.4538064
N3270 ;Departure Move
N3280 G0 Z2.1
N3290 X-1.2003965
N3300 ;Approach Move
N3310 Z1.4538064
N3320 ;Engage Move
N3330 G1 Z1.3538064
N3340 X-1.5072473 Y-1.85
N3350 ;Cutting
N3360 X-1.5993672 Y-1.7709655
N3370 BSPLINE SD=3 X-1.6898064 Y-1.6892636 PL=0.0
N3380 X-1.7730024 Y-1.601724 PL=1.
N3390 X-1.85 Y-1.5072473 PL=0.0
N3400 ;Retract Move
N3410 G1 X-2.1 Y-1.2003965
N3420 Z1.4538064
N3430 ;Departure Move
N3440 G0 Z2.1
N3450 X-.9335334 Y-2.1
N3460 ;Approach Move
N3470 Z1.4538064
N3480 ;Engage Move
N3490 G1 Z1.3538064
N3500 X-1.2916128 Y-1.85
N3510 ;Cutting
N3520 X-1.397804 Y-1.7711317
N3530 BSPLINE SD=3 X-1.5708928 Y-1.6346003 PL=0.0
N3540 X-1.7238462 Y-1.4724049 PL=1.
N3550 X-1.85 Y-1.2916128 PL=0.0
N3560 ;Retract Move
N3570 G1 X-2.1 Y-.9335334
N3580 Z1.4538064
N3590 ;Departure Move
N3600 G0 Z2.1
N3610 X-.6068384 Y-2.1
N3620 ;Approach Move
N3630 Z1.4538064
N3640 ;Engage Move
N3650 G1 Z1.3538064
N3660 X-1.0481092 Y-1.85
N3670 ;Cutting
N3680 X-1.1479531 Y-1.7897588
N3690 BSPLINE SD=3 X-1.4375646 Y-1.6043927 PL=0.0
N3700 X-1.6807981 Y-1.3474766 PL=1.
N3710 X-1.85 Y-1.0481092 PL=0.0
N3720 ;Retract Move
N3730 G1 X-2.1 Y-.6068384
N3740 Z1.4538064
N3750 ;Departure Move
N3760 G0 Z2.1
N3770 X-.1334575 Y-2.1
N3780 ;Approach Move
N3790 Z1.4538064
N3800 ;Engage Move
N3810 G1 Z1.3538064
N3820 X-.7500681 Y-1.85
N3830 ;Cutting
N3840 X-.8639573 Y-1.7996333
N3850 BSPLINE SD=3 X-.8821581 Y-1.7897883 PL=0.0
N3860 X-1.3052238 Y-1.5806657 PL=.042269
N3870 X-1.6602373 Y-1.2020796 PL=.917871
N3880 X-1.8418496 Y-.7677954 PL=.039861
N3890 X-1.85 Y-.7500681 PL=0.0
N3900 ;Retract Move
N3910 G1 X-2.1 Y-.1334575
N3920 Z1.4538064
N3930 ;Departure Move
N3940 G0 Z2.1
N3950 X.0019108 Y-2.1
N3960 ;Approach Move
N3970 Z1.4538064
N3980 ;Engage Move
N3990 G1 Z1.3538064
N4000 Y-1.8829413
N4010 X-.2459094 Y-1.85
N4020 ;Cutting
N4030 X-.3612341 Y-1.8309783
N4040 BSPLINE SD=3 X-.3802526 Y-1.8264216 PL=0.0
N4050 X-.7040553 Y-1.7580188 PL=.025179
N4060 X-1.3609968 Y-1.4183111 PL=.40287
N4070 X-1.7652133 Y-.7393667 PL=.49795
N4080 X-1.8413699 Y-.3023569 PL=.074001
N4090 X-1.85 Y-.2459094 PL=0.0
N4100 G1 X-1.7211335 Y-.22878
N4110 BSPLINE SD=3 X-1.7225949 Y-.2097757 PL=0.0
N4120 X-1.7617773 Y.1138418 PL=.005267
N4130 X-1.678421 Y.6021094 PL=.084276
N4140 X-1.348459 Y1.1248641 PL=.042138
N4150 X-1.0071442 Y1.4384978 PL=.042138
N4160 X-.561917 Y1.6694944 PL=.042138
N4170 X-.0659096 Y1.7603846 PL=.052495
N4180 X.43627 Y1.7014706 PL=.042221
N4190 X.8733182 Y1.5246274 PL=.04315
N4200 X1.2497202 Y1.2350115 PL=.04315
N4210 X1.5348481 Y.8552226 PL=.04315
N4220 X1.7071098 Y.4144039 PL=.04315
N4230 X1.7702164 Y-.1890138 PL=.042723
N4240 X1.5991987 Y-.7818591 PL=.079465
N4250 X1.2262365 Y-1.2575137 PL=.04244
N4260 X.8492231 Y-1.5377738 PL=.042827
N4270 X.3731977 Y-1.7225136 PL=.042827
N4280 X-.1387682 Y-1.7570186 PL=.053534
N4290 X-.6352576 Y-1.6377754 PL=.042827
N4300 X-1.0478164 Y-1.4100155 PL=.042827
N4310 X-1.4813519 Y-.9865584 PL=.042827
N4320 X-1.6741458 Y-.5503695 PL=.079543
N4330 X-1.7178811 Y-.2461411 PL=.004883
N4340 X-1.7211335 Y-.22878 PL=0.0
N4350 G1 X-1.592267 Y-.2116505
N4360 BSPLINE SD=3 X-1.5939202 Y-.1932234 PL=0.0
N4370 X-1.6132488 Y-.0279953 PL=.005496
N4380 X-1.6002912 Y.2890148 PL=.04397
N4390 X-1.4607989 Y.7145152 PL=.04397
N4400 X-1.1896854 Y1.1169333 PL=.04397
N4410 X-.8064751 Y1.4186468 PL=.054962
N4420 X-.3562414 Y1.5859578 PL=.04397
N4430 X.0801602 Y1.6230341 PL=.042529
N4440 X.5081661 Y1.543681 PL=.042593
N4450 X.9015866 Y1.3525138 PL=.043151
N4460 X1.2309123 Y1.0616145 PL=.043151
N4470 X1.4701904 Y.6932015 PL=.043151
N4480 X1.6142699 Y.2360643 PL=.043151
N4490 X1.6127108 Y-.251149 PL=.054905
N4500 X1.4605966 Y-.7161659 PL=.044698
N4510 X1.2062568 Y-1.0912203 PL=.044452
N4520 X.8594818 Y-1.3808636 PL=.044304
N4530 X.4469479 Y-1.5639121 PL=.044304
N4540 X.0000118 Y-1.6264761 PL=.044304
N4550 X-.4842262 Y-1.5587475 PL=.044304
N4560 X-.9263602 Y-1.3439187 PL=.05538
N4570 X-1.366439 Y-.9207437 PL=.044304
N4580 X-1.5486156 Y-.5110809 PL=.080098
N4590 X-1.5892213 Y-.2276789 PL=.004883
N4600 X-1.592267 Y-.2116505 PL=0.0
N4610 G1 X-1.4634004 Y-.1945211
N4620 BSPLINE SD=3 X-1.4645795 Y-.1769391 PL=0.0
N4630 X-1.5009562 Y.1234599 PL=.005746
N4640 X-1.4103033 Y.5767188 PL=.091937
N4650 X-1.0527482 Y1.0712742 PL=.045968
N4660 X-.6708114 Y1.3438514 PL=.057461
N4670 X-.2355528 Y1.4759554 PL=.045968
N4680 X.1790973 Y1.4835367 PL=.042203
N4690 X.5788408 Y1.3788955 PL=.044853
N4700 X.9418848 Y1.1619728 PL=.045308
N4710 X1.2302482 Y.8506257 PL=.045308
N4720 X1.4354373 Y.4394667 PL=.045308
N4730 X1.5008278 Y-.0160164 PL=.056559
N4740 X1.4210857 Y-.4650603 PL=.044699
N4750 X1.2346302 Y-.8444368 PL=.044847
N4760 X.9463248 Y-1.1589401 PL=.045886
N4770 X.5777367 Y-1.3802139 PL=.045886
N4780 X.1614701 Y-1.4874559 PL=.045886
N4790 X-.303999 Y-1.4708036 PL=.045886
N4800 X-.742282 Y-1.3056181 PL=.057358
N4810 X-1.2130614 Y-.9211686 PL=.045886
N4820 X-1.4169345 Y-.5091561 PL=.091347
N4830 X-1.4599838 Y-.2116587 PL=.005697
N4840 X-1.4634004 Y-.1945211 PL=0.0
N4850 G1 X-1.3345339 Y-.1773916
N4860 BSPLINE SD=3 X-1.3359671 Y-.1604787 PL=0.0
N4870 X-1.353547 Y-.0087509 PL=.00602
N4880 X-1.3367133 Y.2824698 PL=.048157
N4890 X-1.1799377 Y.7001915 PL=.048157
N4900 X-.8906465 Y1.0436915 PL=.060196
N4910 X-.5076831 Y1.2680126 PL=.048157
N4920 X-.1250672 Y1.3580638 PL=.047346
N4930 X.2652429 Y1.3377204 PL=.042419
N4940 X.6683916 Y1.1976287 PL=.047693
N4950 X1.0163263 Y.9209772 PL=.059616
N4960 X1.2515991 Y.5469933 PL=.047693
N4970 X1.3559584 Y.158334 PL=.047693
N4980 X1.3435695 Y-.2350629 PL=.045822
N4990 X1.211941 Y-.6380347 PL=.044699
N5000 X.9540218 Y-.9844148 PL=.0584
N5010 X.5922261 Y-1.2307557 PL=.047586
N5020 X.2034293 Y-1.3506523 PL=.047586
N5030 X-.2034099 Y-1.3505854 PL=.047586
N5040 X-.6246883 Y-1.2208687 PL=.047586
N5050 X-1.0851898 Y-.8814214 PL=.059482
N5060 X-1.2917375 Y-.4671793 PL=.09241
N5070 X-1.3314211 Y-.1930715 PL=.005697
N5080 X-1.3345339 Y-.1773916 PL=0.0
N5090 G1 X-1.2056674 Y-.1602622
N5100 BSPLINE SD=3 X-1.2070015 Y-.1441965 PL=0.0
N5110 X-1.2235104 Y-.0003256 PL=.006321
N5120 X-1.2050055 Y.2762209 PL=.050565
N5130 X-1.0584532 Y.6386889 PL=.050565
N5140 X-.7849304 Y.9625353 PL=.050565
N5150 X-.4204434 Y1.1669434 PL=.063207
N5160 X-.0258249 Y1.2327156 PL=.047228
N5170 X.3376575 Y1.1868107 PL=.04492
N5180 X.6798521 Y1.0323933 PL=.050342
N5190 X.9671563 Y.7696771 PL=.050342
N5200 X1.1748509 Y.4021949 PL=.050342
N5210 X1.2419428 Y-.0194114 PL=.063021
N5220 X1.1568268 Y-.4372262 PL=.051083
N5230 X.9592954 Y-.7807711 PL=.051199
N5240 X.662358 Y-1.0446705 PL=.051392
N5250 X.2966662 Y-1.2007924 PL=.051392
N5260 X-.1328112 Y-1.235691 PL=.051392
N5270 X-.5495642 Y-1.1147436 PL=.06424
N5280 X-.8890303 Y-.8585903 PL=.051392
N5290 X-1.1046132 Y-.5498251 PL=.049212
N5300 X-1.1838148 Y-.3036747 PL=.045578
N5310 X-1.203117 Y-.1745612 PL=.005697
N5320 X-1.2056674 Y-.1602622 PL=0.0
N5330 G1 X-1.0768009 Y-.1431327
N5340 BSPLINE SD=3 X-1.0780009 Y-.128047 PL=0.0
N5350 X-1.093454 Y.0073035 PL=.006653
N5360 X-1.0731963 Y.2672582 PL=.053226
N5370 X-.9139388 Y.633006 PL=.053226
N5380 X-.6290788 Y.9166484 PL=.066533
N5390 X-.2779416 Y1.0677376 PL=.053226
N5400 X.0608518 Y1.1004839 PL=.046002
N5410 X.4250805 Y1.0252306 PL=.04894
N5420 X.7562869 Y.815024 PL=.066629
N5430 X.9908807 Y.4914945 PL=.053303
N5440 X1.0965207 Y.1416498 PL=.053303
N5450 X1.0830194 Y-.2182783 PL=.051917
N5460 X.9450796 Y-.5838523 PL=.051085
N5470 X.6794845 Y-.8800916 PL=.066611
N5480 X.3208701 Y-1.0587369 PL=.053534
N5490 X-.0464377 Y-1.1053048 PL=.053534
N5500 X-.4390109 Y-1.0217088 PL=.053534
N5510 X-.8576124 Y-.7422254 PL=.066917
N5520 X-1.0412159 Y-.3853756 PL=.09613
N5530 X-1.0742303 Y-.155775 PL=.005697
N5540 X-1.0768009 Y-.1431327 PL=0.0
N5550 G1 X-.9479343 Y-.1260032
N5560 BSPLINE SD=3 X-.9490054 Y-.111986 PL=0.0
N5570 X-.9632504 Y.0138145 PL=.007023
N5580 X-.9415611 Y.2554687 PL=.056184
N5590 X-.7831749 Y.5912877 PL=.056184
N5600 X-.5046744 Y.8415345 PL=.070229
N5610 X-.1547775 Y.9631827 PL=.056184
N5620 X.1877559 Y.9575232 PL=.055766
N5630 X.5082994 Y.8332448 PL=.056635
N5640 X.7666941 Y.6039894 PL=.056635
N5650 X.940725 Y.277339 PL=.056635
N5660 X.9753351 Y-.0823814 PL=.068713
N5670 X.8774421 Y-.4211693 PL=.051086
N5680 X.6897878 Y-.688844 PL=.054071
N5690 X.4143836 Y-.8831537 PL=.055862
N5700 X.085512 Y-.9716929 PL=.055862
N5710 X-.2821714 Y-.9395246 PL=.055862
N5720 X-.6115902 Y-.7669689 PL=.069827
N5730 X-.8456731 Y-.4851019 PL=.055716
N5740 X-.9268573 Y-.2612922 PL=.054692
N5750 X-.9453942 Y-.1394495 PL=.006837
N5760 X-.9479343 Y-.1260032 PL=0.0
N5770 G1 X-.8190678 Y-.1088738
N5780 BSPLINE SD=3 X-.820015 Y-.096039 PL=0.0
N5790 X-.8328833 Y.0190379 PL=.007436
N5800 X-.8102022 Y.2402987 PL=.059489
N5810 X-.6665724 Y.51965 PL=.059489
N5820 X-.4308006 Y.7270061 PL=.059489
N5830 X-.1152694 Y.8417522 PL=.059489
N5840 X.2239104 Y.8198331 PL=.071756
N5850 X.5247317 Y.6632072 PL=.060411
N5860 X.733153 Y.4216742 PL=.060411
N5870 X.8368853 Y.1207973 PL=.060411
N5880 X.822396 Y-.1958487 PL=.059903
N5890 X.6919867 Y-.4863557 PL=.059796
N5900 X.4613825 Y-.7093372 PL=.061181
N5910 X.1366674 Y-.8409325 PL=.061181
N5920 X-.2167326 Y-.8239583 PL=.076476
N5930 X-.5260465 Y-.6624248 PL=.061181
N5940 X-.7279384 Y-.4269551 PL=.06037
N5950 X-.800861 Y-.2257118 PL=.054695
N5960 X-.8168705 Y-.1205126 PL=.006837
N5970 X-.8190678 Y-.1088738 PL=0.0
N5980 ;Retract Move
N5990 G1 X-1.0668881 Y-.1418151
N6000 Z1.4538064
N6010 ;Departure Move
N6020 G0 Z2.1
N6030 X-2.1 Y1.4199867
N6040 ;Approach Move
N6050 Z1.2076127
N6060 ;Engage Move
N6070 G1 Z1.1076127
N6080 X-1.821722 Y1.7154961
N6090 ;Cutting
N6100 X-1.7694064 Y1.7694064
N6110 X-1.7154961 Y1.821722
N6120 ;Retract Move
N6130 X-1.4199867 Y2.1
N6140 Z1.2076127
N6150 ;Departure Move
N6160 G0 Z2.1
N6170 X-2.1 Y1.1736215
N6180 ;Approach Move
N6190 Z1.2076127
N6200 ;Engage Move
N6210 G1 Z1.1076127
N6220 X-1.85 Y1.4850573
N6230 ;Cutting
N6240 X-1.7663635 Y1.5836209
N6250 BSPLINE SD=3 X-1.6796988 Y1.6802544 PL=0.0
N6260 X-1.5862679 Y1.7687275 PL=1.
N6270 X-1.4850573 Y1.85 PL=0.0
N6280 ;Retract Move
N6290 G1 X-1.1736215 Y2.1
N6300 Z1.2076127
N6310 ;Departure Move
N6320 G0 Z2.1
N6330 X-2.1 Y.9020678
N6340 ;Approach Move
N6350 Z1.2076127
N6360 ;Engage Move
N6370 G1 Z1.1076127
N6380 X-1.85 Y1.2670802
N6390 ;Cutting
N6400 X-1.7805227 Y1.3629861
N6410 BSPLINE SD=3 X-1.6366407 Y1.5510767 PL=0.0
N6420 X-1.4625049 Y1.7162491 PL=1.
N6430 X-1.2670802 Y1.85 PL=0.0
N6440 ;Retract Move
N6450 G1 X-.9020678 Y2.1
N6460 Z1.2076127
N6470 ;Departure Move
N6480 G0 Z2.1
N6490 X-2.1 Y.5658528
N6500 ;Approach Move
N6510 Z1.2076127
N6520 ;Engage Move
N6530 G1 Z1.1076127
N6540 X-1.85 Y1.0195045
N6550 ;Cutting
N6560 X-1.7896509 Y1.1220692
N6570 BSPLINE SD=3 X-1.6003245 Y1.4248304 PL=0.0
N6580 X-1.3324472 Y1.678024 PL=1.
N6590 X-1.0195045 Y1.85 PL=0.0
N6600 ;Retract Move
N6610 G1 X-.5658528 Y2.1
N6620 Z1.2076127
N6630 ;Departure Move
N6640 G0 Z2.1
N6650 X-2.1 Y.062613
N6660 ;Approach Move
N6670 Z1.2076127
N6680 ;Engage Move
N6690 G1 Z1.1076127
N6700 X-1.85 Y.7121002
N6710 ;Cutting
N6720 X-1.80421 Y.8212264
N6730 BSPLINE SD=3 X-1.7788845 Y.8746316 PL=0.0
N6740 X-1.5737253 Y1.280042 PL=.115385
N6750 X-1.1838519 Y1.647305 PL=.769231
N6760 X-.7669214 Y1.8279065 PL=.115385
N6770 X-.7121002 Y1.85 PL=0.0
N6780 ;Retract Move
N6790 G1 X-.062613 Y2.1
N6800 Z1.2076127
N6810 ;Departure Move
N6820 G0 Z2.1
N6830 X-2.1 Y-.1570377
N6840 ;Approach Move
N6850 Z1.2076127
N6860 ;Engage Move
N6870 G1 Z1.1076127
N6880 X-1.8625045
N6890 X-1.85 Y.0926493
N6900 ;Cutting
N6910 X-1.8402104 Y.2114467
N6920 BSPLINE SD=3 X-1.8371135 Y.2310739 PL=0.0
N6930 X-1.7990318 Y.5266797 PL=.022883
N6940 X-1.5985691 Y1.0388703 PL=.320358
N6950 X-1.0522173 Y1.5800545 PL=.274593
N6960 X-.5664408 Y1.7822803 PL=.274593
N6970 X-.239231 Y1.8377578 PL=.045765
N6980 X-.1462711 Y1.8475404 PL=.061807
N6990 X-.0926493 Y1.85 PL=0.0
N7000 ;Retract Move
N7010 G1 X.1570377 Y1.8625045
N7020 Y2.1
N7030 Z1.2076127
N7040 ;Departure Move
N7050 G0 Z2.1
N7060 X1.4199867
N7070 ;Approach Move
N7080 Z1.2076127
N7090 ;Engage Move
N7100 G1 Z1.1076127
N7110 X1.7154961 Y1.821722
N7120 ;Cutting
N7130 X1.7694064 Y1.7694064
N7140 X1.821722 Y1.7154961
N7150 ;Retract Move
N7160 X2.1 Y1.4199867
N7170 Z1.2076127
N7180 ;Departure Move
N7190 G0 Z2.1
N7200 X1.1736215 Y2.1
N7210 ;Approach Move
N7220 Z1.2076127
N7230 ;Engage Move
N7240 G1 Z1.1076127
N7250 X1.4850573 Y1.85
N7260 ;Cutting
N7270 X1.5836209 Y1.7663635
N7280 BSPLINE SD=3 X1.6802544 Y1.6796988 PL=0.0
N7290 X1.7687275 Y1.5862679 PL=1.
N7300 X1.85 Y1.4850573 PL=0.0
N7310 ;Retract Move
N7320 G1 X2.1 Y1.1736215
N7330 Z1.2076127
N7340 ;Departure Move
N7350 G0 Z2.1
N7360 X.9020678 Y2.1
N7370 ;Approach Move
N7380 Z1.2076127
N7390 ;Engage Move
N7400 G1 Z1.1076127
N7410 X1.2670802 Y1.85
N7420 ;Cutting
N7430 X1.3629861 Y1.7805227
N7440 BSPLINE SD=3 X1.5510767 Y1.6366407 PL=0.0
N7450 X1.7162491 Y1.4625049 PL=1.
N7460 X1.85 Y1.2670802 PL=0.0
N7470 ;Retract Move
N7480 G1 X2.1 Y.9020678
N7490 Z1.2076127
N7500 ;Departure Move
N7510 G0 Z2.1
N7520 X.5658528 Y2.1
N7530 ;Approach Move
N7540 Z1.2076127
N7550 ;Engage Move
N7560 G1 Z1.1076127
N7570 X1.0195045 Y1.85
N7580 ;Cutting
N7590 X1.1220692 Y1.7896509
N7600 BSPLINE SD=3 X1.4248304 Y1.6003245 PL=0.0
N7610 X1.678024 Y1.3324472 PL=1.
N7620 X1.85 Y1.0195045 PL=0.0
N7630 ;Retract Move
N7640 G1 X2.1 Y.5658528
N7650 Z1.2076127
N7660 ;Departure Move
N7670 G0 Z2.1
N7680 X.062613 Y2.1
N7690 ;Approach Move
N7700 Z1.2076127
N7710 ;Engage Move
N7720 G1 Z1.1076127
N7730 X.7121002 Y1.85
N7740 ;Cutting
N7750 X.8212264 Y1.80421
N7760 BSPLINE SD=3 X.8746316 Y1.7788845 PL=0.0
N7770 X1.280042 Y1.5737253 PL=.115385
N7780 X1.647305 Y1.1838519 PL=.769231
N7790 X1.8279065 Y.7669214 PL=.115385
N7800 X1.85 Y.7121002 PL=0.0
N7810 ;Retract Move
N7820 G1 X2.1 Y.062613
N7830 Z1.2076127
N7840 ;Departure Move
N7850 G0 Z2.1
N7860 X-.1570377 Y2.1
N7870 ;Approach Move
N7880 Z1.2076127
N7890 ;Engage Move
N7900 G1 Z1.1076127
N7910 Y1.8625045
N7920 X.0926493 Y1.85
N7930 ;Cutting
N7940 X.1877972 Y1.842774
N7950 BSPLINE SD=3 X.2225563 Y1.8387788 PL=0.0
N7960 X.2811279 Y1.8318251 PL=.036304
N7970 X.3767012 Y1.8143651 PL=.036304
N7980 X.6665726 Y1.7467375 PL=.036304
N7990 X1.0903595 Y1.5438915 PL=.267326
N8000 X1.5615381 Y1.0649013 PL=.222772
N8010 X1.7604972 Y.6311541 PL=.267326
N8020 X1.8246183 Y.325738 PL=.044554
N8030 X1.8420802 Y.2077165 PL=.044554
N8040 X1.8471747 Y.1354951 PL=.044554
N8050 X1.85 Y.0926493 PL=0.0
N8060 ;Retract Move
N8070 G1 X1.8625045 Y-.1570378
N8080 X2.1
N8090 Z1.2076127
N8100 ;Departure Move
N8110 G0 Z2.1
N8120 Y-1.4199867
N8130 ;Approach Move
N8140 Z1.2076127
N8150 ;Engage Move
N8160 G1 Z1.1076127
N8170 X1.821722 Y-1.7154961
N8180 ;Cutting
N8190 X1.7694064 Y-1.7694064
N8200 X1.7154961 Y-1.821722
N8210 ;Retract Move
N8220 X1.4199867 Y-2.1
N8230 Z1.2076127
N8240 ;Departure Move
N8250 G0 Z2.1
N8260 X2.1 Y-1.1736215
N8270 ;Approach Move
N8280 Z1.2076127
N8290 ;Engage Move
N8300 G1 Z1.1076127
N8310 X1.85 Y-1.4850573
N8320 ;Cutting
N8330 X1.7663635 Y-1.5836209
N8340 BSPLINE SD=3 X1.6796988 Y-1.6802544 PL=0.0
N8350 X1.5862679 Y-1.7687275 PL=1.
N8360 X1.4850573 Y-1.85 PL=0.0
N8370 ;Retract Move
N8380 G1 X1.1736215 Y-2.1
N8390 Z1.2076127
N8400 ;Departure Move
N8410 G0 Z2.1
N8420 X2.1 Y-.9020679
N8430 ;Approach Move
N8440 Z1.2076127
N8450 ;Engage Move
N8460 G1 Z1.1076127
N8470 X1.85 Y-1.2670802
N8480 ;Cutting
N8490 X1.7805227 Y-1.3629861
N8500 BSPLINE SD=3 X1.6366407 Y-1.5510767 PL=0.0
N8510 X1.4625049 Y-1.7162491 PL=1.
N8520 X1.2670802 Y-1.85 PL=0.0
N8530 ;Retract Move
N8540 G1 X.9020678 Y-2.1
N8550 Z1.2076127
N8560 ;Departure Move
N8570 G0 Z2.1
N8580 X2.1 Y-.5658528
N8590 ;Approach Move
N8600 Z1.2076127
N8610 ;Engage Move
N8620 G1 Z1.1076127
N8630 X1.85 Y-1.0195045
N8640 ;Cutting
N8650 X1.8099446 Y-1.0890317
N8660 BSPLINE SD=3 X1.7846641 Y-1.1300504 PL=0.0
N8670 X1.5946478 Y-1.4223734 PL=.130284
N8680 X1.3177601 Y-1.6799816 PL=.811735
N8690 X1.0378254 Y-1.8388948 PL=.057981
N8700 X1.0195045 Y-1.85 PL=0.0
N8710 ;Retract Move
N8720 G1 X.5658528 Y-2.1
N8730 Z1.2076127
N8740 ;Departure Move
N8750 G0 Z2.1
N8760 X2.1 Y-.062613
N8770 ;Approach Move
N8780 Z1.2076127
N8790 ;Engage Move
N8800 G1 Z1.1076127
N8810 X1.85 Y-.7121002
N8820 ;Cutting
N8830 X1.8096353 Y-.8092014
N8840 BSPLINE SD=3 X1.7875301 Y-.8568993 PL=0.0
N8850 X1.7318715 Y-.9697208 PL=.101656
N8860 X1.4696029 Y-1.3924594 PL=.141491
N8870 X1.0950601 Y-1.6967708 PL=.717019
N8880 X.7308413 Y-1.8416803 PL=.039834
N8890 X.7121002 Y-1.85 PL=0.0
N8900 ;Retract Move
N8910 G1 X.062613 Y-2.1
N8920 Z1.2076127
N8930 ;Departure Move
N8940 G0 Z2.1
N8950 X2.1 Y.1570378
N8960 ;Approach Move
N8970 Z1.2076127
N8980 ;Engage Move
N8990 G1 Z1.1076127
N9000 X1.8625045
N9010 X1.85 Y-.0926493
N9020 ;Cutting
N9030 X1.8413489 Y-.2012912
N9040 BSPLINE SD=3 X1.8364224 Y-.2409478 PL=0.0
N9050 X1.8278316 Y-.3077727 PL=.04168
N9060 X1.8058894 Y-.4166124 PL=.04168
N9070 X1.7320134 Y-.6999055 PL=.04168
N9080 X1.5269681 Y-1.1093457 PL=.252837
N9090 X1.0579023 Y-1.5655749 PL=.222187
N9100 X.6270507 Y-1.7616672 PL=.266624
N9110 X.3239403 Y-1.8249206 PL=.044437
N9120 X.2068229 Y-1.8421583 PL=.044437
N9130 X.1351626 Y-1.8472018 PL=.044437
N9140 X.0926494 Y-1.85 PL=0.0
N9150 ;Retract Move
N9160 G1 X-.1570377 Y-1.8625045
N9170 Y-2.1
N9180 Z1.2076127
N9190 ;Departure Move
N9200 G0 Z2.1
N9210 X-1.4199867
N9220 ;Approach Move
N9230 Z1.2076127
N9240 ;Engage Move
N9250 G1 Z1.1076127
N9260 X-1.7154961 Y-1.821722
N9270 ;Cutting
N9280 X-1.7694064 Y-1.7694064
N9290 X-1.821722 Y-1.7154961
N9300 ;Retract Move
N9310 X-2.1 Y-1.4199867
N9320 Z1.2076127
N9330 ;Departure Move
N9340 G0 Z2.1
N9350 X-1.1736215 Y-2.1
N9360 ;Approach Move
N9370 Z1.2076127
N9380 ;Engage Move
N9390 G1 Z1.1076127
N9400 X-1.4850573 Y-1.85
N9410 ;Cutting
N9420 X-1.5836209 Y-1.7663635
N9430 BSPLINE SD=3 X-1.6802544 Y-1.6796988 PL=0.0
N9440 X-1.7687275 Y-1.5862679 PL=1.
N9450 X-1.85 Y-1.4850573 PL=0.0
N9460 ;Retract Move
N9470 G1 X-2.1 Y-1.1736215
N9480 Z1.2076127
N9490 ;Departure Move
N9500 G0 Z2.1
N9510 X-.9020678 Y-2.1
N9520 ;Approach Move
N9530 Z1.2076127
N9540 ;Engage Move
N9550 G1 Z1.1076127
N9560 X-1.2670802 Y-1.85
N9570 ;Cutting
N9580 X-1.3629861 Y-1.7805227
N9590 BSPLINE SD=3 X-1.5510767 Y-1.6366407 PL=0.0
N9600 X-1.7162491 Y-1.4625049 PL=1.
N9610 X-1.85 Y-1.2670802 PL=0.0
N9620 ;Retract Move
N9630 G1 X-2.1 Y-.9020679
N9640 Z1.2076127
N9650 ;Departure Move
N9660 G0 Z2.1
N9670 X-.5658528 Y-2.1
N9680 ;Approach Move
N9690 Z1.2076127
N9700 ;Engage Move
N9710 G1 Z1.1076127
N9720 X-1.0195045 Y-1.85
N9730 ;Cutting
N9740 X-1.1240094 Y-1.788433
N9750 BSPLINE SD=3 X-1.4259593 Y-1.5991191 PL=0.0
N9760 X-1.6783402 Y-1.3318532 PL=1.
N9770 X-1.85 Y-1.0195046 PL=0.0
N9780 ;Retract Move
N9790 G1 X-2.1 Y-.5658528
N9800 Z1.2076127
N9810 ;Departure Move
N9820 G0 Z2.1
N9830 X-.062613 Y-2.1
N9840 ;Approach Move
N9850 Z1.2076127
N9860 ;Engage Move
N9870 G1 Z1.1076127
N9880 X-.7121002 Y-1.85
N9890 ;Cutting
N9900 X-.8206203 Y-1.8044858
N9910 BSPLINE SD=3 X-.8737357 Y-1.7793234 PL=0.0
N9920 X-1.2783624 Y-1.5748528 PL=.114686
N9930 X-1.6462692 Y-1.1853578 PL=.767601
N9940 X-1.8274304 Y-.7680436 PL=.117713
N9950 X-1.85 Y-.7121002 PL=0.0
N9960 ;Retract Move
N9970 G1 X-2.1 Y-.062613
N9980 Z1.2076127
N9990 ;Departure Move
N10000 G0 Z2.1
N10010 X.1570377 Y-2.1
N10020 ;Approach Move
N10030 Z1.2076127
N10040 ;Engage Move
N10050 G1 Z1.1076127
N10060 Y-1.8625045
N10070 X-.0926494 Y-1.85
N10080 ;Cutting
N10090 X-.2120668 Y-1.840139
N10100 BSPLINE SD=3 X-.2316941 Y-1.8368244 PL=0.0
N10110 X-.5688197 Y-1.7939684 PL=.023008
N10120 X-1.0800148 Y-1.5724614 PL=.36813
N10130 X-1.6487958 Y-.9549398 PL=.230081
N10140 X-1.8278548 Y-.4402532 PL=.356546
N10150 X-1.8480678 Y-.1117907 PL=.022236
N10160 X-1.85 Y-.0926493 PL=0.0
N10170 G1 X-1.7201627 Y-.086147
N10180 BSPLINE SD=3 X-1.7200689 Y-.067311 PL=0.0
N10190 X-1.7324285 Y.2544468 PL=.005245
N10200 X-1.6114394 Y.7284592 PL=.083927
N10210 X-1.2456642 Y1.2173768 PL=.041963
N10220 X-.8853669 Y1.4999703 PL=.041963
N10230 X-.4364098 Y1.6905047 PL=.041963
N10240 X.0388994 Y1.7442131 PL=.05016
N10250 X.5121435 Y1.663757 PL=.03889
N10260 X.9265892 Y1.4760985 PL=.04307
N10270 X1.287476 Y1.1746553 PL=.04307
N10280 X1.5546339 Y.7877361 PL=.04307
N10290 X1.7086361 Y.3434667 PL=.04307
N10300 X1.7382761 Y-.1257967 PL=.04307
N10310 X1.6414639 Y-.5854602 PL=.04307
N10320 X1.4271917 Y-.9993312 PL=.042944
N10330 X1.1138623 Y-1.3392099 PL=.042065
N10340 X.7253348 Y-1.5836157 PL=.042065
N10350 X.2471438 Y-1.7302947 PL=.042065
N10360 X-.2601718 Y-1.7289836 PL=.053361
N10370 X-.7459592 Y-1.5753369 PL=.043313
N10380 X-1.1419305 Y-1.3168863 PL=.043313
N10390 X-1.5421913 Y-.8609872 PL=.043313
N10400 X-1.6995981 Y-.4103833 PL=.080052
N10410 X-1.718323 Y-.1039096 PL=.004976
N10420 X-1.7201627 Y-.086147 PL=0.0
N10430 G1 X-1.5903254 Y-.0796447
N10440 BSPLINE SD=3 X-1.590141 Y-.0614779 PL=0.0
N10450 X-1.6021107 Y.2496596 PL=.005484
N10460 X-1.4783277 Y.7074147 PL=.087741
N10470 X-1.0868714 Y1.1979648 PL=.043871
N10480 X-.6853086 Y1.4652192 PL=.054838
N10490 X-.2395378 Y1.5917467 PL=.043871
N10500 X.3256477 Y1.6022306 PL=.038991
N10510 X.8687305 Y1.3886239 PL=.085348
N10520 X1.2856415 Y.9735273 PL=.044665
N10530 X1.5049777 Y.5794532 PL=.044665
N10540 X1.6151879 Y.1032767 PL=.044665
N10550 X1.5717433 Y-.38616 PL=.055831
N10560 X1.3789187 Y-.8365636 PL=.044665
N10570 X1.0915518 Y-1.1876458 PL=.045019
N10580 X.7163731 Y-1.4452878 PL=.04507
N10590 X.2861113 Y-1.5871813 PL=.04507
N10600 X-.1605629 Y-1.6039555 PL=.044411
N10610 X-.6244905 Y-1.491441 PL=.043313
N10620 X-1.0317497 Y-1.2449335 PL=.054141
N10630 X-1.4257413 Y-.7959449 PL=.043313
N10640 X-1.5713465 Y-.3794498 PL=.080053
N10650 X-1.58861 Y-.096048 PL=.004976
N10660 X-1.5903254 Y-.0796447 PL=0.0
N10670 G1 X-1.4604882 Y-.0731423
N10680 BSPLINE SD=3 X-1.4605794 Y-.0555395 PL=0.0
N10690 X-1.4659211 Y.1026775 PL=.005745
N10700 X-1.4264819 Y.4022422 PL=.04596
N10710 X-1.2529394 Y.7918095 PL=.04596
N10720 X-.9755329 Y1.1158613 PL=.04596
N10730 X-.6173953 Y1.3474031 PL=.04596
N10740 X-.1740152 Y1.4775615 PL=.04596
N10750 X.2914641 Y1.4591268 PL=.057439
N10760 X.7253242 Y1.2928976 PL=.046329
N10770 X1.0661402 Y1.0301839 PL=.046383
N10780 X1.317178 Y.680371 PL=.046383
N10790 X1.4571242 Y.2732487 PL=.046383
N10800 X1.4742001 Y-.1569723 PL=.046383
N10810 X1.3672952 Y-.5724156 PL=.046383
N10820 X1.1483008 Y-.9365196 PL=.045891
N10830 X.8386051 Y-1.2211141 PL=.045071
N10840 X.4323314 Y-1.4226519 PL=.045071
N10850 X-.0232799 Y-1.4873175 PL=.056505
N10860 X-.477654 Y-1.4034477 PL=.046407
N10870 X-.8609326 Y-1.2069716 PL=.046407
N10880 X-1.1703002 Y-.909715 PL=.046407
N10890 X-1.3803398 Y-.5390909 PL=.045836
N10900 X-1.4484763 Y-.2468409 PL=.045493
N10910 X-1.4588479 Y-.0904903 PL=.005687
N10920 X-1.4604882 Y-.0731423 PL=0.0
N10930 G1 X-1.3306509 Y-.06664
N10940 BSPLINE SD=3 X-1.3307031 Y-.0497927 PL=0.0
N10950 X-1.3356821 Y.1015411 PL=.006032
N10960 X-1.295346 Y.388115 PL=.048257
N10970 X-1.1204078 Y.7570951 PL=.048257
N10980 X-.8201604 Y1.0822741 PL=.048257
N10990 X-.4281473 Y1.2881942 PL=.060322
N11000 X.0015251 Y1.3510836 PL=.047393
N11010 X.3969579 Y1.291805 PL=.046237
N11020 X.760286 Y1.1182517 PL=.048238
N11030 X1.0594325 Y.8403676 PL=.048238
N11040 X1.2619 Y.4858568 PL=.048238
N11050 X1.3568305 Y.0538015 PL=.048238
N11060 X1.3013223 Y-.3879551 PL=.060298
N11070 X1.1019476 Y-.7839201 PL=.048276
N11080 X.8164449 Y-1.0782826 PL=.048537
N11090 X.4549506 Y-1.2736816 PL=.048537
N11100 X.0567357 Y-1.3504828 PL=.048537
N11110 X-.3727679 Y-1.3038717 PL=.046673
N11120 X-.7608348 Y-1.1223746 PL=.058009
N11130 X-1.1587984 Y-.7399802 PL=.046407
N11140 X-1.3121797 Y-.3529735 PL=.09133
N11150 X-1.3288428 Y-.082276 PL=.005687
N11160 X-1.3306509 Y-.06664 PL=0.0
N11170 G1 X-1.2008136 Y-.0601376
N11180 BSPLINE SD=3 X-1.2008087 Y-.0441505 PL=0.0
N11190 X-1.2054684 Y.0996709 PL=.00635
N11200 X-1.1642727 Y.3716834 PL=.050797
N11210 X-.9744187 Y.7472807 PL=.050797
N11220 X-.6622923 Y1.0340486 PL=.063496
N11230 X-.2791971 Y1.1886174 PL=.050797
N11240 X.0917231 Y1.2165723 PL=.047769
N11250 X.4528315 Y1.1335815 PL=.047563
N11260 X.8056485 Y.9260031 PL=.050248
N11270 X1.0701763 Y.6009832 PL=.06281
N11280 X1.2041692 Y.2068991 PL=.050248
N11290 X1.2089098 Y-.1771563 PL=.050248
N11300 X1.0857878 Y-.5707819 PL=.050248
N11310 X.8361887 Y-.8966004 PL=.061313
N11320 X.4968947 Y-1.1147357 PL=.048538
N11330 X.1370755 Y-1.2132009 PL=.048538
N11340 X-.2394829 Y-1.1976397 PL=.049437
N11350 X-.6265908 Y-1.0550887 PL=.049976
N11360 X-1.0268971 Y-.7134585 PL=.06247
N11370 X-1.1839782 Y-.3218285 PL=.09267
N11380 X-1.1991683 Y-.0742818 PL=.005687
N11390 X-1.2008136 Y-.0601376 PL=0.0
N11400 ;Retract Move
N11410 G1 X-1.4505007 Y-.0726421
N11420 X-2.1
N11430 Z1.2076127
N11440 ;Departure Move
N11450 G0 Z2.1
N11460 Y1.3578001
N11470 ;Approach Move
N11480 Z.9614191
N11490 ;Engage Move
N11500 G1 Z.8614191
N11510 X-1.8462886 Y1.6429175
N11520 ;Cutting
N11530 X-1.7811471 Y1.7133227
N11540 X-1.7133227 Y1.7811471
N11550 X-1.6429175 Y1.8462886
N11560 ;Retract Move
N11570 X-1.3578001 Y2.1
N11580 Z.9614191
N11590 ;Departure Move
N11600 G0 Z2.1
N11610 X-2.1 Y1.1129406
N11620 ;Approach Move
N11630 Z.9614191
N11640 ;Engage Move
N11650 G1 Z.8614191
N11660 X-1.85 Y1.4351962
N11670 ;Cutting
N11680 X-1.7755919 Y1.5262902
N11690 BSPLINE SD=3 X-1.6732669 Y1.6453295 PL=0.0
N11700 X-1.559224 Y1.7537822 PL=1.
N11710 X-1.4351962 Y1.85 PL=0.0
N11720 ;Retract Move
N11730 G1 X-1.1129406 Y2.1
N11740 Z.9614191
N11750 ;Departure Move
N11760 G0 Z2.1
N11770 X-2.1 Y.829842
N11780 ;Approach Move
N11790 Z.9614191
N11800 ;Engage Move
N11810 G1 Z.8614191
N11820 X-1.85 Y1.2115761
N11830 ;Cutting
N11840 X-1.7756853 Y1.3180889
N11850 BSPLINE SD=3 X-1.6209788 Y1.5267006 PL=0.0
N11860 X-1.42891 Y1.7078066 PL=1.
N11870 X-1.2115761 Y1.85 PL=0.0
N11880 ;Retract Move
N11890 G1 X-.829842 Y2.1
N11900 Z.9614191
N11910 ;Departure Move
N11920 G0 Z2.1
N11930 X-2.1 Y.4689852
N11940 ;Approach Move
N11950 Z.9614191
N11960 ;Engage Move
N11970 G1 Z.8614191
N11980 X-1.85 Y.9538581
N11990 ;Cutting
N12000 X-1.7874829 Y1.0664193
N12010 BSPLINE SD=3 X-1.7757625 Y1.0843944 PL=0.0
N12020 X-1.584629 Y1.3952023 PL=.055556
N12030 X-1.2945546 Y1.667863 PL=.888889
N12040 X-.9725234 Y1.8394134 PL=.055556
N12050 X-.9538581 Y1.85 PL=0.0
N12060 ;Retract Move
N12070 G1 X-.4689852 Y2.1
N12080 Z.9614191
N12090 ;Departure Move
N12100 G0 Z2.1
N12110 X-2.1 Y.3839401
N12120 ;Approach Move
N12130 Z.9614191
N12140 ;Engage Move
N12150 G1 Z.8614191
N12160 X-1.9295502
N12170 X-1.85 Y.6209459
N12180 ;Cutting
N12190 X-1.8083074 Y.7335518
N12200 BSPLINE SD=3 X-1.7847692 Y.7886195 PL=0.0
N12210 X-1.5606994 Y1.281762 PL=.107143
N12220 X-1.1130372 Y1.6786134 PL=.857143
N12230 X-.6393973 Y1.8426038 PL=.035714
N12240 X-.6209459 Y1.85 PL=0.0
N12250 ;Retract Move
N12260 G1 X-.3839401 Y1.9295502
N12270 Y2.1
N12280 Z.9614191
N12290 ;Departure Move
N12300 G0 Z2.1
N12310 X1.3578001
N12320 ;Approach Move
N12330 Z.9614191
N12340 ;Engage Move
N12350 G1 Z.8614191
N12360 X1.6429175 Y1.8462886
N12370 ;Cutting
N12380 X1.7133227 Y1.7811471
N12390 X1.7811471 Y1.7133227
N12400 X1.8462886 Y1.6429175
N12410 ;Retract Move
N12420 X2.1 Y1.3578001
N12430 Z.9614191
N12440 ;Departure Move
N12450 G0 Z2.1
N12460 X1.1129407 Y2.1
N12470 ;Approach Move
N12480 Z.9614191
N12490 ;Engage Move
N12500 G1 Z.8614191
N12510 X1.4351962 Y1.85
N12520 ;Cutting
N12530 X1.5262902 Y1.7755919
N12540 BSPLINE SD=3 X1.6453295 Y1.6732669 PL=0.0
N12550 X1.7537822 Y1.559224 PL=1.
N12560 X1.85 Y1.4351962 PL=0.0
N12570 ;Retract Move
N12580 G1 X2.1 Y1.1129406
N12590 Z.9614191
N12600 ;Departure Move
N12610 G0 Z2.1
N12620 X.829842 Y2.1
N12630 ;Approach Move
N12640 Z.9614191
N12650 ;Engage Move
N12660 G1 Z.8614191
N12670 X1.2115761 Y1.85
N12680 ;Cutting
N12690 X1.3180889 Y1.7756853
N12700 BSPLINE SD=3 X1.5267006 Y1.6209788 PL=0.0
N12710 X1.7078066 Y1.42891 PL=1.
N12720 X1.85 Y1.2115761 PL=0.0
N12730 ;Retract Move
N12740 G1 X2.1 Y.829842
N12750 Z.9614191
N12760 ;Departure Move
N12770 G0 Z2.1
N12780 X.4689852 Y2.1
N12790 ;Approach Move
N12800 Z.9614191
N12810 ;Engage Move
N12820 G1 Z.8614191
N12830 X.9538581 Y1.85
N12840 ;Cutting
N12850 X1.0664193 Y1.7874829
N12860 BSPLINE SD=3 X1.0843944 Y1.7757625 PL=0.0
N12870 X1.3952023 Y1.584629 PL=.055556
N12880 X1.667863 Y1.2945546 PL=.888889
N12890 X1.8394134 Y.9725234 PL=.055556
N12900 X1.85 Y.9538581 PL=0.0
N12910 ;Retract Move
N12920 G1 X2.1 Y.4689852
N12930 Z.9614191
N12940 ;Departure Move
N12950 G0 Z2.1
N12960 X.3839401 Y2.1
N12970 ;Approach Move
N12980 Z.9614191
N12990 ;Engage Move
N13000 G1 Z.8614191
N13010 Y1.9295502
N13020 X.6209459 Y1.85
N13030 ;Cutting
N13040 X.7335518 Y1.8083074
N13050 BSPLINE SD=3 X.7886195 Y1.7847692 PL=0.0
N13060 X1.281762 Y1.5606994 PL=.107143
N13070 X1.6786134 Y1.1130372 PL=.857143
N13080 X1.8426038 Y.6393973 PL=.035714
N13090 X1.85 Y.6209459 PL=0.0
N13100 ;Retract Move
N13110 G1 X1.9295502 Y.3839401
N13120 X2.1
N13130 Z.9614191
N13140 ;Departure Move
N13150 G0 Z2.1
N13160 Y-1.3578001
N13170 ;Approach Move
N13180 Z.9614191
N13190 ;Engage Move
N13200 G1 Z.8614191
N13210 X1.8462886 Y-1.6429175
N13220 ;Cutting
N13230 X1.7811471 Y-1.7133227
N13240 X1.7133227 Y-1.7811471
N13250 X1.6429175 Y-1.8462886
N13260 ;Retract Move
N13270 X1.3578001 Y-2.1
N13280 Z.9614191
N13290 ;Departure Move
N13300 G0 Z2.1
N13310 X2.1 Y-1.1129406
N13320 ;Approach Move
N13330 Z.9614191
N13340 ;Engage Move
N13350 G1 Z.8614191
N13360 X1.85 Y-1.4351962
N13370 ;Cutting
N13380 X1.7755919 Y-1.5262902
N13390 BSPLINE SD=3 X1.6732669 Y-1.6453295 PL=0.0
N13400 X1.559224 Y-1.7537822 PL=1.
N13410 X1.4351962 Y-1.85 PL=0.0
N13420 ;Retract Move
N13430 G1 X1.1129406 Y-2.1
N13440 Z.9614191
N13450 ;Departure Move
N13460 G0 Z2.1
N13470 X2.1 Y-.829842
N13480 ;Approach Move
N13490 Z.9614191
N13500 ;Engage Move
N13510 G1 Z.8614191
N13520 X1.85 Y-1.2115761
N13530 ;Cutting
N13540 X1.7756853 Y-1.3180889
N13550 BSPLINE SD=3 X1.6209788 Y-1.5267006 PL=0.0
N13560 X1.42891 Y-1.7078066 PL=1.
N13570 X1.2115761 Y-1.85 PL=0.0
N13580 ;Retract Move
N13590 G1 X.829842 Y-2.1
N13600 Z.9614191
N13610 ;Departure Move
N13620 G0 Z2.1
N13630 X2.1 Y-.4689852
N13640 ;Approach Move
N13650 Z.9614191
N13660 ;Engage Move
N13670 G1 Z.8614191
N13680 X1.85 Y-.9538581
N13690 ;Cutting
N13700 X1.8108466 Y-1.0262455
N13710 BSPLINE SD=3 X1.7247741 Y-1.1762936 PL=0.0
N13720 X1.4958854 Y-1.484358 PL=.430615
N13730 X1.1737718 Y-1.7321568 PL=.517622
N13740 X.9720121 Y-1.8398016 PL=.051762
N13750 X.9538581 Y-1.85 PL=0.0
N13760 ;Retract Move
N13770 G1 X.4689852 Y-2.1
N13780 Z.9614191
N13790 ;Departure Move
N13800 G0 Z2.1
N13810 X2.1 Y-.3839401
N13820 ;Approach Move
N13830 Z.9614191
N13840 ;Engage Move
N13850 G1 Z.8614191
N13860 X1.9295502
N13870 X1.85 Y-.6209459
N13880 ;Cutting
N13890 X1.8110215 Y-.7268253
N13900 BSPLINE SD=3 X1.789357 Y-.7788991 PL=0.0
N13910 X1.6672344 Y-1.049818 PL=.100241
N13920 X1.3316151 Y-1.487497 PL=.427317
N13930 X.8909783 Y-1.7546363 PL=.4361
N13940 X.6400528 Y-1.8427208 PL=.036342
N13950 X.6209459 Y-1.85 PL=0.0
N13960 ;Retract Move
N13970 G1 X.3839401 Y-1.9295502
N13980 Y-2.1
N13990 Z.9614191
N14000 ;Departure Move
N14010 G0 Z2.1
N14020 X-1.3578001
N14030 ;Approach Move
N14040 Z.9614191
N14050 ;Engage Move
N14060 G1 Z.8614191
N14070 X-1.6429175 Y-1.8462886
N14080 ;Cutting
N14090 X-1.7133227 Y-1.7811471
N14100 X-1.7811471 Y-1.7133227
N14110 X-1.8462886 Y-1.6429175
N14120 ;Retract Move
N14130 X-2.1 Y-1.3578001
N14140 Z.9614191
N14150 ;Departure Move
N14160 G0 Z2.1
N14170 X-1.1129406 Y-2.1
N14180 ;Approach Move
N14190 Z.9614191
N14200 ;Engage Move
N14210 G1 Z.8614191
N14220 X-1.4351962 Y-1.85
N14230 ;Cutting
N14240 X-1.5262902 Y-1.7755919
N14250 BSPLINE SD=3 X-1.6453295 Y-1.6732669 PL=0.0
N14260 X-1.7537822 Y-1.559224 PL=1.
N14270 X-1.85 Y-1.4351962 PL=0.0
N14280 ;Retract Move
N14290 G1 X-2.1 Y-1.1129406
N14300 Z.9614191
N14310 ;Departure Move
N14320 G0 Z2.1
N14330 X-.829842 Y-2.1
N14340 ;Approach Move
N14350 Z.9614191
N14360 ;Engage Move
N14370 G1 Z.8614191
N14380 X-1.2115761 Y-1.85
N14390 ;Cutting
N14400 X-1.3180889 Y-1.7756853
N14410 BSPLINE SD=3 X-1.5267006 Y-1.6209788 PL=0.0
N14420 X-1.7078066 Y-1.42891 PL=1.
N14430 X-1.85 Y-1.2115761 PL=0.0
N14440 ;Retract Move
N14450 G1 X-2.1 Y-.829842
N14460 Z.9614191
N14470 ;Departure Move
N14480 G0 Z2.1
N14490 X-.4689852 Y-2.1
N14500 ;Approach Move
N14510 Z.9614191
N14520 ;Engage Move
N14530 G1 Z.8614191
N14540 X-.9538581 Y-1.85
N14550 ;Cutting
N14560 X-1.0629986 Y-1.7895193
N14570 BSPLINE SD=3 X-1.0804481 Y-1.7782175 PL=0.0
N14580 X-1.3111293 Y-1.6371029 PL=.053653
N14590 X-1.6000238 Y-1.3694959 PL=.643839
N14600 X-1.7957825 Y-1.0577949 PL=.302508
N14610 X-1.85 Y-.9538581 PL=0.0
N14620 ;Retract Move
N14630 G1 X-2.1 Y-.4689852
N14640 Z.9614191
N14650 ;Departure Move
N14660 G0 Z2.1
N14670 X-.3839401 Y-2.1
N14680 ;Approach Move
N14690 Z.9614191
N14700 ;Engage Move
N14710 G1 Z.8614191
N14720 Y-1.9295502
N14730 X-.6209459 Y-1.85
N14740 ;Cutting
N14750 X-.7359953 Y-1.8073142
N14760 BSPLINE SD=3 X-.7543441 Y-1.7985839 PL=0.0
N14770 X-1.2192022 Y-1.6039121 PL=.036556
N14780 X-1.6396242 Y-1.1791606 PL=.862612
N14790 X-1.8311483 Y-.673958 PL=.100832
N14800 X-1.85 Y-.6209459 PL=0.0
N14810 G1 X-1.726757 Y-.5795798
N14820 BSPLINE SD=3 X-1.7320228 Y-.5606936 PL=0.0
N14830 X-1.833861 Y-.2449111 PL=.005154
N14840 X-1.851079 Y.2963253 PL=.081764
N14850 X-1.6028443 Y.9155262 PL=.050541
N14860 X-1.2903117 Y1.312455 PL=.040433
N14870 X-.9190831 Y1.5946099 PL=.040433
N14880 X-.4867675 Y1.7753063 PL=.040433
N14890 X-.0171079 Y1.8413681 PL=.041004
N14900 X.49939 Y1.7789567 PL=.041917
N14910 X.9803943 Y1.5661232 PL=.052318
N14920 X1.3763324 Y1.2239952 PL=.041854
N14930 X1.6472199 Y.8241787 PL=.041854
N14940 X1.8048483 Y.3675942 PL=.041854
N14950 X1.8383192 Y-.1141857 PL=.041854
N14960 X1.737821 Y-.6275199 PL=.041854
N14970 X1.4911125 Y-1.0909296 PL=.052266
N14980 X1.1222779 Y-1.4602885 PL=.041715
N14990 X.705615 Y-1.7012381 PL=.041715
N15000 X.2406637 Y-1.8259718 PL=.041715
N15010 X-.240663 Y-1.8259409 PL=.041715
N15020 X-.7443626 Y-1.6908932 PL=.041715
N15030 X-1.3119958 Y-1.3375184 PL=.052144
N15040 X-1.6153755 Y-.8977523 PL=.079142
N15050 X-1.7204785 Y-.595945 PL=.004602
N15060 X-1.726757 Y-.5795798 PL=0.0
N15070 G1 X-1.6035139 Y-.5382138
N15080 BSPLINE SD=3 X-1.608385 Y-.5206742 PL=0.0
N15090 X-1.7047831 Y-.2220086 PL=.005154
N15100 X-1.7184692 Y.2956101 PL=.083373
N15110 X-1.4697899 Y.8861969 PL=.052839
N15120 X-1.1545767 Y1.2624354 PL=.042271
N15130 X-.7827726 Y1.5212442 PL=.042271
N15140 X-.3566536 Y1.673137 PL=.042271
N15150 X.0961225 Y1.7082524 PL=.042073
N15160 X.5839768 Y1.6149031 PL=.042794
N15170 X1.0275587 Y1.3762554 PL=.054122
N15180 X1.3779968 Y1.0154538 PL=.043297
N15190 X1.600239 Y.6078763 PL=.043297
N15200 X1.7046535 Y.1555288 PL=.043297
N15210 X1.6821308 Y-.34693 PL=.043297
N15220 X1.5084735 Y-.821052 PL=.054122
N15230 X1.2021482 Y-1.2183269 PL=.04313
N15240 X.8323415 Y-1.4955921 PL=.043106
N15250 X.4018277 Y-1.6637636 PL=.043106
N15260 X-.0579225 Y-1.7105891 PL=.043106
N15270 X-.5514681 Y-1.6263155 PL=.043106
N15280 X-1.1539817 Y-1.3174407 PL=.053882
N15290 X-1.4860574 Y-.8752836 PL=.091483
N15300 X-1.597559 Y-.55331 PL=.004602
N15310 X-1.6035139 Y-.5382138 PL=0.0
N15320 G1 X-1.4802709 Y-.4968477
N15330 BSPLINE SD=3 X-1.4956426 Y-.4486956 PL=0.0
N15340 X-1.5468067 Y-.2690312 PL=.015462
N15350 X-1.5785248 Y.0636862 PL=.041614
N15360 X-1.5042806 Y.4868482 PL=.044284
N15370 X-1.3126662 Y.8813473 PL=.044284
N15380 X-1.0201079 Y1.2078952 PL=.044284
N15390 X-.5897408 Y1.4792866 PL=.044284
N15400 X-.0914036 Y1.5893671 PL=.065552
N15410 X.41095 Y1.5263031 PL=.043039
N15420 X.8145085 Y1.3557689 PL=.044844
N15430 X1.1593612 Y1.0757588 PL=.044844
N15440 X1.4127575 Y.7110143 PL=.044844
N15450 X1.5547481 Y.2901335 PL=.044844
N15460 X1.574104 Y-.1535731 PL=.044844
N15470 X1.4694192 Y-.5849553 PL=.044844
N15480 X1.2494032 Y-.9693566 PL=.044749
N15490 X.8794538 Y-1.3288912 PL=.044592
N15500 X.4033977 Y-1.5416428 PL=.066888
N15510 X-.1107306 Y-1.577397 PL=.044592
N15520 X-.5425315 Y-1.4853787 PL=.044592
N15530 X-1.0480322 Y-1.2157 PL=.044592
N15540 X-1.3509601 Y-.8398122 PL=.084324
N15550 X-1.4652484 Y-.5392975 PL=.013806
N15560 X-1.4802709 Y-.4968477 PL=0.0
N15570 G1 X-1.3570279 Y-.4554816
N15580 BSPLINE SD=3 X-1.3711052 Y-.4113406 PL=0.0
N15590 X-1.4182871 Y-.245828 PL=.015462
N15600 X-1.4477128 Y.0667254 PL=.041891
N15610 X-1.3736567 Y.4684613 PL=.046497
N15620 X-1.1804723 Y.844229 PL=.046497
N15630 X-.8873205 Y1.148489 PL=.046497
N15640 X-.5204318 Y1.3544558 PL=.046497
N15650 X-.1217691 Y1.4443517 PL=.04593
N15660 X.285625 Y1.4212006 PL=.042525
N15670 X.6731683 Y1.2857514 PL=.046505
N15680 X1.0149616 Y1.0373431 PL=.046505
N15690 X1.2921946 Y.6729954 PL=.046505
N15700 X1.4376889 Y.2361008 PL=.058131
N15710 X1.4342467 Y-.2217126 PL=.046505
N15720 X1.3098127 Y-.6248737 PL=.046505
N15730 X1.0752415 Y-.9744352 PL=.046305
N15740 X.7511335 Y-1.2414937 PL=.046185
N15750 X.3645006 Y-1.4045101 PL=.046185
N15760 X-.0526356 Y-1.4500902 PL=.046185
N15770 X-.4653056 Y-1.3743741 PL=.046185
N15780 X-.948085 Y-1.1284026 PL=.046185
N15790 X-1.2361729 Y-.7760441 PL=.086514
N15800 X-1.3432451 Y-.4943938 PL=.013806
N15810 X-1.3570279 Y-.4554816 PL=0.0
N15820 ;Retract Move
N15830 G1 X-1.5940337 Y-.5350318
N15840 X-2.1
N15850 Z.9614191
N15860 ;Departure Move
N15870 G0 Z2.1
N15880 Y1.4035395
N15890 ;Approach Move
N15900 Z.7152254
N15910 ;Engage Move
N15920 G1 Z.6152254
N15930 X-1.8318121 Y1.6936118
N15940 ;Cutting
N15950 X-1.7640658 Y1.7640658
N15960 X-1.6936118 Y1.8318121
N15970 ;Retract Move
N15980 X-1.4035395 Y2.1
N15990 Z.7152254
N16000 ;Departure Move
N16010 G0 Z2.1
N16020 X-2.1 Y1.1589689
N16030 ;Approach Move
N16040 Z.7152254
N16050 ;Engage Move
N16060 G1 Z.6152254
N16070 X-1.85 Y1.4729621
N16080 ;Cutting
N16090 X-1.7638847 Y1.5750645
N16100 BSPLINE SD=3 X-1.6745332 Y1.6750938 PL=0.0
N16110 X-1.5778767 Y1.7664388 PL=1.
N16120 X-1.4729621 Y1.85 PL=0.0
N16130 ;Retract Move
N16140 G1 X-1.1589689 Y2.1
N16150 Z.7152254
N16160 ;Departure Move
N16170 G0 Z2.1
N16180 X-2.1 Y.8847478
N16190 ;Approach Move
N16200 Z.7152254
N16210 ;Engage Move
N16220 G1 Z.6152254
N16230 X-1.85 Y1.2536659
N16240 ;Cutting
N16250 X-1.7793195 Y1.3521095
N16260 BSPLINE SD=3 X-1.6327667 Y1.5451123 PL=0.0
N16270 X-1.4543294 Y1.7141252 PL=1.
N16280 X-1.2536659 Y1.85 PL=0.0
N16290 ;Retract Move
N16300 G1 X-.8847478 Y2.1
N16310 Z.7152254
N16320 ;Departure Move
N16330 G0 Z2.1
N16340 X-2.1 Y.5429961
N16350 ;Approach Move
N16360 Z.7152254
N16370 ;Engage Move
N16380 G1 Z.6152254
N16390 X-1.85 Y1.0037625
N16400 ;Cutting
N16410 X-1.7890864 Y1.1086969
N16420 BSPLINE SD=3 X-1.5976914 Y1.4184203 PL=0.0
N16430 X-1.3239999 Y1.6767701 PL=1.
N16440 X-1.0037625 Y1.85 PL=0.0
N16450 ;Retract Move
N16460 G1 X-.5429961 Y2.1
N16470 Z.7152254
N16480 ;Departure Move
N16490 G0 Z2.1
N16500 X-2.1 Y.0212798
N16510 ;Approach Move
N16520 Z.7152254
N16530 ;Engage Move
N16540 G1 Z.6152254
N16550 X-1.85 Y.6907966
N16560 ;Cutting
N16570 X-1.8043289 Y.8025568
N16580 BSPLINE SD=3 X-1.7790391 Y.8573634 PL=0.0
N16590 X-1.6801966 Y1.0556245 PL=.115385
N16600 X-1.5002414 Y1.3007466 PL=.307692
N16610 X-1.2066378 Y1.5769246 PL=.153846
N16620 X-.950977 Y1.7415644 PL=.307692
N16630 X-.7470463 Y1.8281067 PL=.115385
N16640 X-.6907966 Y1.85 PL=0.0
N16650 ;Retract Move
N16660 G1 X-.0212798 Y2.1
N16670 Z.7152254
N16680 ;Departure Move
N16690 G0 Z2.1
N16700 X1.4035395
N16710 ;Approach Move
N16720 Z.7152254
N16730 ;Engage Move
N16740 G1 Z.6152254
N16750 X1.6936118 Y1.8318121
N16760 ;Cutting
N16770 X1.7640658 Y1.7640658
N16780 X1.8318121 Y1.6936118
N16790 ;Retract Move
N16800 X2.1 Y1.4035395
N16810 Z.7152254
N16820 ;Departure Move
N16830 G0 Z2.1
N16840 X1.1589689 Y2.1
N16850 ;Approach Move
N16860 Z.7152254
N16870 ;Engage Move
N16880 G1 Z.6152254
N16890 X1.4729621 Y1.85
N16900 ;Cutting
N16910 X1.5750645 Y1.7638847
N16920 BSPLINE SD=3 X1.6750938 Y1.6745332 PL=0.0
N16930 X1.7664388 Y1.5778767 PL=1.
N16940 X1.85 Y1.4729621 PL=0.0
N16950 ;Retract Move
N16960 G1 X2.1 Y1.1589689
N16970 Z.7152254
N16980 ;Departure Move
N16990 G0 Z2.1
N17000 X.8847478 Y2.1
N17010 ;Approach Move
N17020 Z.7152254
N17030 ;Engage Move
N17040 G1 Z.6152254
N17050 X1.2536659 Y1.85
N17060 ;Cutting
N17070 X1.3521095 Y1.7793195
N17080 BSPLINE SD=3 X1.5451123 Y1.6327668 PL=0.0
N17090 X1.7141252 Y1.4543294 PL=1.
N17100 X1.85 Y1.2536659 PL=0.0
N17110 ;Retract Move
N17120 G1 X2.1 Y.8847478
N17130 Z.7152254
N17140 ;Departure Move
N17150 G0 Z2.1
N17160 X.5429961 Y2.1
N17170 ;Approach Move
N17180 Z.7152254
N17190 ;Engage Move
N17200 G1 Z.6152254
N17210 X1.0037625 Y1.85
N17220 ;Cutting
N17230 X1.1086969 Y1.7890864
N17240 BSPLINE SD=3 X1.4184203 Y1.5976914 PL=0.0
N17250 X1.6767701 Y1.3239999 PL=1.
N17260 X1.85 Y1.0037625 PL=0.0
N17270 ;Retract Move
N17280 G1 X2.1 Y.5429961
N17290 Z.7152254
N17300 ;Departure Move
N17310 G0 Z2.1
N17320 X.0212798 Y2.1
N17330 ;Approach Move
N17340 Z.7152254
N17350 ;Engage Move
N17360 G1 Z.6152254
N17370 X.6907966 Y1.85
N17380 ;Cutting
N17390 X.8025568 Y1.8043289
N17400 BSPLINE SD=3 X.8573634 Y1.7790391 PL=0.0
N17410 X1.0556245 Y1.6801966 PL=.115385
N17420 X1.3007466 Y1.5002414 PL=.307692
N17430 X1.5769246 Y1.2066378 PL=.153846
N17440 X1.7415644 Y.950977 PL=.307692
N17450 X1.8281067 Y.7470463 PL=.115385
N17460 X1.85 Y.6907966 PL=0.0
N17470 ;Retract Move
N17480 G1 X2.1 Y.0212798
N17490 Z.7152254
N17500 ;Departure Move
N17510 G0 Z2.1
N17520 Y-1.4035395
N17530 ;Approach Move
N17540 Z.7152254
N17550 ;Engage Move
N17560 G1 Z.6152254
N17570 X1.8318121 Y-1.6936118
N17580 ;Cutting
N17590 X1.7640658 Y-1.7640658
N17600 X1.6936118 Y-1.8318121
N17610 ;Retract Move
N17620 X1.4035395 Y-2.1
N17630 Z.7152254
N17640 ;Departure Move
N17650 G0 Z2.1
N17660 X2.1 Y-1.1589689
N17670 ;Approach Move
N17680 Z.7152254
N17690 ;Engage Move
N17700 G1 Z.6152254
N17710 X1.85 Y-1.4729621
N17720 ;Cutting
N17730 X1.7638847 Y-1.5750645
N17740 BSPLINE SD=3 X1.6745332 Y-1.6750938 PL=0.0
N17750 X1.5778767 Y-1.7664388 PL=1.
N17760 X1.4729621 Y-1.85 PL=0.0
N17770 ;Retract Move
N17780 G1 X1.1589689 Y-2.1
N17790 Z.7152254
N17800 ;Departure Move
N17810 G0 Z2.1
N17820 X2.1 Y-.8847479
N17830 ;Approach Move
N17840 Z.7152254
N17850 ;Engage Move
N17860 G1 Z.6152254
N17870 X1.85 Y-1.2536659
N17880 ;Cutting
N17890 X1.7793195 Y-1.3521095
N17900 BSPLINE SD=3 X1.6327667 Y-1.5451123 PL=0.0
N17910 X1.4543294 Y-1.7141252 PL=1.
N17920 X1.2536659 Y-1.85 PL=0.0
N17930 ;Retract Move
N17940 G1 X.8847478 Y-2.1
N17950 Z.7152254
N17960 ;Departure Move
N17970 G0 Z2.1
N17980 X2.1 Y-.5429961
N17990 ;Approach Move
N18000 Z.7152254
N18010 ;Engage Move
N18020 G1 Z.6152254
N18030 X1.85 Y-1.0037625
N18040 ;Cutting
N18050 X1.8232372 Y-1.0515918
N18060 BSPLINE SD=3 X1.6307922 Y-1.3864157 PL=0.0
N18070 X1.3435384 Y-1.6663486 PL=1.
N18080 X1.0037625 Y-1.85 PL=0.0
N18090 ;Retract Move
N18100 G1 X.5429961 Y-2.1
N18110 Z.7152254
N18120 ;Departure Move
N18130 G0 Z2.1
N18140 X2.1 Y-.0212798
N18150 ;Approach Move
N18160 Z.7152254
N18170 ;Engage Move
N18180 G1 Z.6152254
N18190 X1.85 Y-.6907966
N18200 ;Cutting
N18210 X1.8147558 Y-.7786921
N18220 BSPLINE SD=3 X1.7955321 Y-.8218751 PL=0.0
N18230 X1.5947803 Y-1.250105 PL=.089026
N18240 X1.1936349 Y-1.6398557 PL=.79889
N18250 X.7461856 Y-1.8282509 PL=.112084
N18260 X.6907966 Y-1.85 PL=0.0
N18270 ;Retract Move
N18280 G1 X.0212798 Y-2.1
N18290 Z.7152254
N18300 ;Departure Move
N18310 G0 Z2.1
N18320 X-1.4035395
N18330 ;Approach Move
N18340 Z.7152254
N18350 ;Engage Move
N18360 G1 Z.6152254
N18370 X-1.6936118 Y-1.8318121
N18380 ;Cutting
N18390 X-1.7640658 Y-1.7640658
N18400 X-1.8318121 Y-1.6936118
N18410 ;Retract Move
N18420 X-2.1 Y-1.4035395
N18430 Z.7152254
N18440 ;Departure Move
N18450 G0 Z2.1
N18460 X-1.1589689 Y-2.1
N18470 ;Approach Move
N18480 Z.7152254
N18490 ;Engage Move
N18500 G1 Z.6152254
N18510 X-1.4729621 Y-1.85
N18520 ;Cutting
N18530 X-1.5750645 Y-1.7638847
N18540 BSPLINE SD=3 X-1.6750938 Y-1.6745332 PL=0.0
N18550 X-1.7664388 Y-1.5778767 PL=1.
N18560 X-1.85 Y-1.4729621 PL=0.0
N18570 ;Retract Move
N18580 G1 X-2.1 Y-1.1589689
N18590 Z.7152254
N18600 ;Departure Move
N18610 G0 Z2.1
N18620 X-.8847478 Y-2.1
N18630 ;Approach Move
N18640 Z.7152254
N18650 ;Engage Move
N18660 G1 Z.6152254
N18670 X-1.2536659 Y-1.85
N18680 ;Cutting
N18690 X-1.3521095 Y-1.7793195
N18700 BSPLINE SD=3 X-1.5451123 Y-1.6327667 PL=0.0
N18710 X-1.7141252 Y-1.4543294 PL=1.
N18720 X-1.85 Y-1.2536659 PL=0.0
N18730 ;Retract Move
N18740 G1 X-2.1 Y-.8847478
N18750 Z.7152254
N18760 ;Departure Move
N18770 G0 Z2.1
N18780 X-.5429961 Y-2.1
N18790 ;Approach Move
N18800 Z.7152254
N18810 ;Engage Move
N18820 G1 Z.6152254
N18830 X-1.0037625 Y-1.85
N18840 ;Cutting
N18850 X-1.1066289 Y-1.7903664
N18860 BSPLINE SD=3 X-1.4173066 Y-1.59885 PL=0.0
N18870 X-1.6763405 Y-1.3247816 PL=1.
N18880 X-1.85 Y-1.0037625 PL=0.0
N18890 ;Retract Move
N18900 G1 X-2.1 Y-.5429961
N18910 Z.7152254
N18920 ;Departure Move
N18930 G0 Z2.1
N18940 X-.0212798 Y-2.1
N18950 ;Approach Move
N18960 Z.7152254
N18970 ;Engage Move
N18980 G1 Z.6152254
N18990 X-.6907966 Y-1.85
N19000 ;Cutting
N19010 X-.7985578 Y-1.8061023
N19020 BSPLINE SD=3 X-.851233 Y-1.7817168 PL=0.0
N19030 X-1.2154629 Y-1.602875 PL=.110894
N19040 X-1.6049853 Y-1.2250653 PL=.66099
N19050 X-1.8076292 Y-.8026736 PL=.228116
N19060 X-1.85 Y-.6907966 PL=0.0
N19070 G1 X-1.7282134 Y-.6453211
N19080 BSPLINE SD=3 X-1.7339977 Y-.627939 PL=0.0
N19090 X-1.7894922 Y-.4727884 PL=.00474
N19100 X-1.86361 Y-.122511 PL=.037919
N19110 X-1.8308001 Y.3746909 PL=.049374
N19120 X-1.6589096 Y.8495882 PL=.040176
N19130 X-1.3721576 Y1.2693845 PL=.040176
N19140 X-.9774432 Y1.5932968 PL=.05022
N19150 X-.4756074 Y1.8073861 PL=.040176
N19160 X.0298758 Y1.8688865 PL=.049732
N19170 X.5331286 Y1.7863324 PL=.040338
N19180 X1.0044278 Y1.5775477 PL=.040903
N19190 X1.4000572 Y1.2398861 PL=.051129
N19200 X1.6815629 Y.8054199 PL=.040903
N19210 X1.8436543 Y.3137445 PL=.040903
N19220 X1.8587583 Y-.2061567 PL=.051129
N19230 X1.7252295 Y-.7074248 PL=.040903
N19240 X1.4667134 Y-1.1613749 PL=.041176
N19250 X1.0841323 Y-1.5249288 PL=.052038
N19260 X.5769269 Y-1.7798613 PL=.041631
N19270 X.0551645 Y-1.8702765 PL=.052038
N19280 X-.4679726 Y-1.8055648 PL=.041631
N19290 X-.9565524 Y-1.6080213 PL=.041631
N19300 X-1.3055042 Y-1.3268049 PL=.052038
N19310 X-1.5602163 Y-1.0002504 PL=.020815
N19320 X-1.6689798 Y-.7981401 PL=.034145
N19330 X-1.7220991 Y-.6600684 PL=.004134
N19340 X-1.7282134 Y-.6453211 PL=0.0
N19350 G1 X-1.6064268 Y-.5998455
N19360 BSPLINE SD=3 X-1.6118084 Y-.583681 PL=0.0
N19370 X-1.6633718 Y-.4394912 PL=.00474
N19380 X-1.7335231 Y-.1081871 PL=.037919
N19390 X-1.6996418 Y.3664977 PL=.050972
N19400 X-1.5127199 Y.8591412 PL=.042002
N19410 X-1.208223 Y1.2515999 PL=.052503
N19420 X-.7730595 Y1.5583979 PL=.042002
N19430 X-.3090056 Y1.7108527 PL=.052503
N19440 X.1761391 Y1.7240805 PL=.039721
N19450 X.6504304 Y1.6136207 PL=.041908
N19460 X1.0814833 Y1.3630102 PL=.052833
N19470 X1.444985 Y.9692446 PL=.042267
N19480 X1.66094 Y.5183911 PL=.052833
N19490 X1.7398834 Y-.0116385 PL=.042267
N19500 X1.6647889 Y-.506265 PL=.052833
N19510 X1.446888 Y-.9569828 PL=.042361
N19520 X1.1152861 Y-1.3367605 PL=.043018
N19530 X.6808647 Y-1.6021727 PL=.053773
N19540 X.1515111 Y-1.7342496 PL=.043018
N19550 X-.3566231 Y-1.703964 PL=.053773
N19560 X-.9029522 Y-1.4959509 PL=.043018
N19570 X-1.2342787 Y-1.2166819 PL=.064527
N19580 X-1.414023 Y-.9706054 PL=.010755
N19590 X-1.5100567 Y-.8222337 PL=.009512
N19600 X-1.5692917 Y-.6968505 PL=.028941
N19610 X-1.6064268 Y-.5998455 PL=0.0
N19620 G1 X-1.4846402 Y-.55437
N19630 BSPLINE SD=3 X-1.4893245 Y-.5394561 PL=0.0
N19640 X-1.5847922 Y-.2757681 PL=.00474
N19650 X-1.6170036 Y.1621597 PL=.079641
N19660 X-1.4340547 Y.7319773 PL=.044002
N19670 X-1.1533899 Y1.1233146 PL=.055003
N19680 X-.7684209 Y1.4084644 PL=.044002
N19690 X-.363834 Y1.5612896 PL=.044002
N19700 X.0599737 Y1.6013657 PL=.041123
N19710 X.4788786 Y1.5302088 PL=.042101
N19720 X.8719891 Y1.3465796 PL=.043724
N19730 X1.2045214 Y1.0594612 PL=.043724
N19740 X1.4670826 Y.6624678 PL=.043724
N19750 X1.5969898 Y.2019842 PL=.054655
N19760 X1.5806491 Y-.273709 PL=.043724
N19770 X1.4466866 Y-.6938117 PL=.043724
N19780 X1.2016177 Y-1.0636498 PL=.04421
N19790 X.8623011 Y-1.3536052 PL=.044502
N19800 X.4552446 Y-1.5389503 PL=.044502
N19810 X-.0240716 Y-1.6104396 PL=.044502
N19820 X-.5044984 Y-1.5295601 PL=.055627
N19830 X-.9340208 Y-1.3050952 PL=.044502
N19840 X-1.2572758 Y-.9972639 PL=.044502
N19850 X-1.4173262 Y-.7249784 PL=.044249
N19860 X-1.4775086 Y-.5712311 PL=.005512
N19870 X-1.4846402 Y-.55437 PL=0.0
N19880 ;Retract Move
N19890 G1 X-2.1 Y-.7841475
N19900 Z.7152254
N19910 ;Departure Move
N19920 G0 Z2.1
N19930 ;End of Path
N19940 TRAFOOF
N19950 SUPA G0 Z=_Z_HOME D0
N19960 SUPA G0 X=_X_HOME Y=_Y_HOME C=_C_HOME A=_A_HOME D0
N19970 CYCLE832()
N19980 M5
N19990 ;End of Program
N20000 M30
